src/icons/solid/metrics/analytics-graph.svg

<svg width="24" height="24" viewBox="0 0 24 24" fill="none" xmlns="http://www.w3.org/2000/svg">
<g clip-path="url(#clip0_4704_740)">
<path d="M2.00977 1.00488C2.4665 1.0552 2.82323 1.45223 2.82324 1.92188V12.9326C2.82332 12.9744 2.84432 13.0057 2.86523 13.0371C2.94904 13.1416 3.08477 13.1523 3.18945 13.0791L7.82031 9.47559C7.88311 9.45469 7.94599 9.45465 8.00879 9.47559C8.07156 9.48614 8.13463 9.52805 8.16602 9.59082C8.365 9.97818 8.64769 10.3131 8.99316 10.5645C9.05602 10.6064 9.08789 10.6698 9.08789 10.7432C9.08779 10.806 9.05592 10.8791 8.99316 10.9209L2.91699 15.5938C2.85433 15.6357 2.82324 15.6983 2.82324 15.7715V18.1914C2.81277 18.2857 2.85467 18.3692 2.93848 18.4111C3.01177 18.4529 3.09567 18.453 3.16895 18.4111L7.70508 15.583C7.75745 15.5517 7.83076 15.5516 7.89355 15.583C7.95619 15.604 8.0083 15.6561 8.0293 15.7188C8.18644 16.1273 8.4279 16.484 8.74219 16.7773C8.79437 16.8193 8.81543 16.8926 8.81543 16.9658C8.80497 17.039 8.77348 17.1017 8.71094 17.1436L2.92773 20.7061C2.8649 20.7375 2.82324 20.8107 2.82324 20.8945V20.9365C2.82343 21.0621 2.92811 21.167 3.05371 21.167H22.0781L22.1729 21.1709C22.6408 21.2164 23 21.5968 23 22.0781C23 22.5914 22.581 23 22.0781 23H2.3623C1.6185 23.0105 1 22.4027 1 21.6484V1.92188C1.00002 1.41035 1.41649 1.00284 1.91699 1L2.00977 1.00488Z" fill="#3C3B44"/>
<path d="M20.7061 15.2061C21.7222 15.2061 22.539 16.0229 22.5391 17.0391C22.5391 18.0552 21.7222 18.872 20.7061 18.8721C19.6899 18.8721 18.873 18.0553 18.873 17.0391C18.8731 16.0229 19.6899 15.2061 20.7061 15.2061Z" fill="#3C3B44"/>
<path d="M13.4561 14.5459C13.5084 14.504 13.5819 14.4934 13.6553 14.5039L18.0967 15.541C18.17 15.562 18.2225 15.6041 18.2539 15.667L18.2441 15.6562C18.2754 15.7086 18.2651 15.7719 18.2441 15.8242C18.0556 16.2013 17.9609 16.6201 17.9609 17.0391C17.9609 17.1124 17.9293 17.1856 17.877 17.2275C17.8246 17.2694 17.751 17.28 17.6777 17.2695L13.2676 16.2432C13.1942 16.2327 13.1418 16.18 13.1104 16.1172C13.079 16.0649 13.079 15.9915 13.1104 15.9287C13.2884 15.5622 13.372 15.1536 13.3721 14.7451V14.7236C13.3721 14.6609 13.4038 14.5878 13.4561 14.5459Z" fill="#3C3B44"/>
<path d="M10.6279 12.9111C11.644 12.9112 12.4609 13.729 12.4609 14.7451C12.4608 15.7611 11.6439 16.578 10.6279 16.5781C9.61185 16.5781 8.79511 15.7611 8.79492 14.7451C8.79492 13.7289 9.61174 12.9111 10.6279 12.9111Z" fill="#3C3B44"/>
<path d="M10.6279 6.5C11.6439 6.50009 12.4608 7.31702 12.4609 8.33301C12.4609 9.34914 11.644 10.1669 10.6279 10.167C9.61174 10.167 8.79492 9.3492 8.79492 8.33301C8.7951 7.31697 9.61185 6.5 10.6279 6.5Z" fill="#3C3B44"/>
<path d="M17.9092 5.47363C17.9404 5.49469 17.9609 5.53643 17.9609 5.57812C17.9609 6.04941 18.0763 6.49973 18.3066 6.9082H18.3281L18.3516 6.94922C18.3695 6.99208 18.3701 7.03958 18.3701 7.08691C18.3387 7.14964 18.286 7.2013 18.2129 7.21191L13.624 8.49023C13.5716 8.52166 13.5084 8.52166 13.4561 8.49023C13.4039 8.44837 13.3828 8.39575 13.3828 8.33301C13.3723 7.89326 13.2575 7.47434 13.0586 7.08691C13.0272 7.02406 13.0272 6.95055 13.0586 6.8877C13.09 6.82488 13.1422 6.78266 13.2051 6.76172L17.7939 5.47363C17.8254 5.4528 17.8674 5.45272 17.9092 5.47363Z" fill="#3C3B44"/>
<path d="M20.7061 3.75488C21.7222 3.75497 22.5391 4.57273 22.5391 5.58887C22.5389 6.60487 21.7221 7.42179 20.7061 7.42188C19.69 7.42188 18.8732 6.60493 18.873 5.58887C18.873 4.57268 19.6899 3.75488 20.7061 3.75488Z" fill="#3C3B44"/>
</g>
<defs>
<clipPath id="clip0_4704_740">
<rect width="24" height="24" fill="white"/>
</clipPath>
</defs>
</svg>

<svg xmlns="http://www.w3.org/2000/svg" width="24" height="24" fill="none" viewBox="0 0 24 24"><g fill="currentColor" clip-path="url(#a)"><path d="M2.01 1.005c.457.05.813.447.813.917v11.01c0 .042.021.074.042.105.084.105.22.115.324.042L7.82 9.476a.3.3 0 0 1 .189 0 .22.22 0 0 1 .157.115c.199.387.482.722.827.974a.21.21 0 0 1 .095.178.22.22 0 0 1-.095.178l-6.076 4.673a.2.2 0 0 0-.094.178v2.42a.21.21 0 0 0 .115.22.23.23 0 0 0 .23 0l4.537-2.829a.2.2 0 0 1 .189 0 .22.22 0 0 1 .135.136c.157.408.399.765.713 1.058.052.042.073.116.073.189a.25.25 0 0 1-.104.178l-5.783 3.562a.21.21 0 0 0-.105.189v.041c0 .126.105.231.23.231h19.025l.095.004a.906.906 0 0 1 .827.907.923.923 0 0 1-.922.922H2.362A1.35 1.35 0 0 1 1 21.648V1.922c0-.512.416-.92.917-.922z"/><path d="M20.706 15.206c1.016 0 1.833.817 1.833 1.833a1.83 1.83 0 0 1-1.833 1.833 1.83 1.83 0 0 1-1.833-1.833c0-1.016.817-1.833 1.833-1.833m-7.25-.66a.26.26 0 0 1 .2-.042l4.44 1.037a.24.24 0 0 1 .158.126l-.01-.01c.031.052.021.115 0 .167a2.7 2.7 0 0 0-.283 1.215.25.25 0 0 1-.084.188.26.26 0 0 1-.2.043l-4.41-1.027c-.073-.01-.125-.063-.157-.126a.2.2 0 0 1 0-.188c.178-.367.262-.775.262-1.184v-.021a.24.24 0 0 1 .084-.178m-2.828-1.635a1.83 1.83 0 0 1 1.833 1.834 1.83 1.83 0 0 1-1.833 1.833 1.83 1.83 0 0 1-1.833-1.833 1.83 1.83 0 0 1 1.833-1.834m0-6.411c1.016 0 1.833.817 1.833 1.833a1.83 1.83 0 0 1-1.833 1.834 1.83 1.83 0 0 1-1.833-1.834c0-1.016.817-1.833 1.833-1.833m7.282-1.026a.13.13 0 0 1 .05.104c0 .471.116.922.347 1.33h.021l.024.041c.017.043.018.09.018.138a.21.21 0 0 1-.157.125L13.624 8.49a.16.16 0 0 1-.168 0 .19.19 0 0 1-.073-.157 2.9 2.9 0 0 0-.324-1.246.22.22 0 0 1 0-.2.25.25 0 0 1 .146-.125l4.589-1.288c.031-.021.073-.021.115 0m2.797-1.719a1.83 1.83 0 0 1 1.833 1.834 1.83 1.83 0 0 1-1.833 1.833 1.83 1.83 0 0 1-1.833-1.833 1.83 1.83 0 0 1 1.833-1.834"/></g><defs><clipPath id="a"><path fill="currentColor" d="M0 0h24v24H0z"/></clipPath></defs></svg>
